dist/svg/static/mileage-large.svg

<svg xmlns="http://www.w3.org/2000/svg" width="48" height="48" viewBox="0 0 48 48"><g fill="none" stroke="currentColor" stroke-miterlimit="10"><path d="M1.5 11.5h12v25h-12zM17.5 11.5h12v25h-12zM33.5 11.5h12v25h-12zM46 7.5H1M1 40.5h45"/><g><path d="M4 19.5h6.5l-5 9.5M27 19.5h-5.5v4s5-.08 5 3-6 2-6 2M41.5 36v-9.5l-5 7H43M36.5 18.5a4 4 0 0 0 3 1c2 0 2-2.5 2-2.5s0-2.5-3-2.5a2.86 2.86 0 0 0 3-3"/></g></g></svg>

<?xml version="1.0" encoding="UTF-8" standalone="no"?>
<svg width="48px" height="48px" viewBox="0 0 48 48" version="1.1" xmlns="http://www.w3.org/2000/svg" xmlns:xlink="http://www.w3.org/1999/xlink">
    <!-- Generator: sketchtool 46.2 (44496) - http://www.bohemiancoding.com/sketch -->
    <title>mileage-large</title>
    <desc>Created with sketchtool.</desc>
    <defs></defs>
    <g id="icons-published" stroke="none" stroke-width="1" fill="none" fill-rule="evenodd">
        <g id="briefing" transform="translate(0.000000, -1050.000000)"></g>
        <g id="mileage-large" stroke="#000000">
            <path d="M1.5,11.5 L13.5,11.5 L13.5,36.5 L1.5,36.5 L1.5,11.5 Z M17.5,11.5 L29.5,11.5 L29.5,36.5 L17.5,36.5 L17.5,11.5 Z M33.5,11.5 L45.5,11.5 L45.5,36.5 L33.5,36.5 L33.5,11.5 Z M46,7.5 L1,7.5 L46,7.5 Z M1,40.5 L46,40.5 L1,40.5 Z" id="Shape"></path>
            <path d="M4,19.5 L10.5,19.5 L5.5,29 M27,19.5 L21.5,19.5 L21.5,23.5 C21.5,23.5 26.5,23.4 26.5,26.5 C26.5,29.6 20.5,28.5 20.5,28.5 M41.5,36 L41.5,26.5 L36.5,33.5 L43,33.5 M36.5,18.5 C37.3,19.2 38.4,19.6 39.5,19.5 C41.5,19.5 41.5,17 41.5,17 C41.5,17 41.5,14.5 38.5,14.5 C40.1,14.6 41.4,13.4 41.5,11.8 C41.5,11.7 41.5,11.6 41.5,11.5" id="Shape"></path>
        </g>
    </g>
</svg>
